!!!!SEGMENT: pl-kk--kk-i-3--061-002_anonim--officium-pro-feria-quinta-et-in-terra.krn
!!!cenid: 15xx:722
!!!COM: Anonim
!!!COM-rismID: pe30004985
!!!CDT:
!!!CNT:
!!!OPR: Officium pro Feria Quinta
!!!OTL: Et in terra
!!!OMV: 002
!!!PDT:
!!!AGN:
!!!SMS-siglum: PL-Kk
!!!SMS-shelfmark: Kk.I.3
!!!SMS-shelfwork: 061-002 M
!!!SMS-variant:
!!!SMS-altvar:
!!!NIFC-rismSourceID: 1001145493
!!!NIFC-rismChildID: 1001145493
!!!NIFC-islandoraID: pl-kk:1170
!!!URL-pdf-islandora: https://repozytorium.nifc.pl/islandora/object/pl-kk%3A1170/datastream/PDF/view
!!!URL-scan: https://polish.musicsources.pl/pl/lokalizacje/galeria/rekopisy/5919 @EN{Scan on Polish Music Sources Website} @PL{Skany w portalu Dziedzictwo Muzyki Polskiej w otwartym dostępie}
!!!ONB-nifc: UWAGA: Discantus (s. 163v-165v, skan 0166-0168), Tenor (s. 124v-125v, skan 0297-0298), Bassus (s. 156r-157v, skan 0459-0461, brak początkowego fragmentu)
!!!AIN: 1 bass 1 empty 1 tenor
!!!key:
**kern	**text	**kern	**text	**kern	**text
*part3	*part3	*part2	*part2	*part1	*part1
*staff3	*staff3	*staff2	*staff2	*staff1	*staff1
*Ibass	*	*Itenor	*	*Iempty	*
*I"Basso	*	*I"Tenore	*	*I"Discanto	*
*I'B.	*	*I'T.	*	*I'A.	*
*ICvox	*	*ICvox	*	*ICvox	*
*clefF4	*	*clefC4	*	*clefC3	*
*k[]	*	*k[]	*	*k[]	*
*C:	*	*C:	*	*C:	*
*M2/1	*	*M2/1	*	*M2/1	*
*met(C|)	*	*met(C|)	*	*met(C|)	*
=1-	=1-	=1-	=1-	=1-	=1-
!LO:TX:a:t=P:problem=t. 1-16 brak materiału źródłowego	!	!	!	!	!
*MM120	*	*MM120	*	*MM120	*
0r	.	1E	[E]t	2.B/	[E]t
.	.	.	.	4B/	in
.	.	1G	in	2B/	ter-
.	.	.	.	2d\	-ra
=2-	=2-	=2-	=2-	=2-	=2-
*	*	*lig	*	*	*
0r	.	1G	ter-	1e	pax
.	.	1A	.	2c\	.
.	.	.	.	2.c\	ho-
*	*	*Xlig	*	*	*
=3-	=3-	=3-	=3-	=3-	=3-
0r	.	1A	-ra	.	.
.	.	.	.	4d\	.
.	.	.	.	2e\	.
.	.	1A	pax	2.d\	-mi-
.	.	.	.	4d\	-ni-
=4-	=4-	=4-	=4-	=4-	=4-
0r	.	1G	ho-	1e	-bus
*	*	*lig	*	*	*
.	.	1A	-mi-	1r	.
=5-	=5-	=5-	=5-	=5-	=5-
0r	.	1B	.	2.e\	Et
*	*	*	*	*custos:e	*
.	.	.	.	4e\	in
!	!	!	!	!LO:LB:g=original	!
*	*	*Xlig	*	*	*
*	*	*lig	*	*	*
.	.	1c	.	2e\	ter-
.	.	.	.	2g\	-ra
=6-	=6-	=6-	=6-	=6-	=6-
0r	.	1A	.	2a\	pax
.	.	.	.	2f\	ho-
*	*	*Xlig	*	*	*
.	.	1G	-ni-	2.g\	-mi-
.	.	.	.	4g\	-ni-
=7-	=7-	=7-	=7-	=7-	=7-
*	*	*custos:A	*	*	*
0r	.	1A	-bus	1f	-bus
!	!	!LO:LB:g=original	!	!	!
.	.	1A	bo-	2r	.
.	.	.	.	1f\	bo-
=8-	=8-	=8-	=8-	=8-	=8-
0r	.	1A	-nae	.	.
.	.	.	.	2f\	-nae
.	.	1G	vo-	1e	vo-
=9-	=9-	=9-	=9-	=9-	=9-
0r	.	1A	-lun-	1f	-lun-
.	.	1G	-ta-	1d	-ta-
=10-	=10-	=10-	=10-	=10-	=10-
0r	.	1E	-tis.	2c\	-tis.
.	.	.	.	2c\	Lau-
.	.	1G	Lau-	4e\	-da-
.	.	.	.	4f\	.
.	.	.	.	4g\	.
.	.	.	.	4e\	.
=11-	=11-	=11-	=11-	=11-	=11-
*	*	*	*	*custos:d	*
0r	.	1A	-da-	1f	.
!	!	!	!	!LO:LB:g=original	!
.	.	1G	-mus	2.d\	.
.	.	.	.	4d\	-mus
=12-	=12-	=12-	=12-	=12-	=12-
0r	.	1E	te.	1e	te.
.	.	1F	Be-	1r	.
=13-	=13-	=13-	=13-	=13-	=13-
0r	.	1G	-ne-	1r	.
*	*	*lig	*	*	*
.	.	1G	-di-	2r	.
.	.	.	.	1c\	Be-
=14-	=14-	=14-	=14-	=14-	=14-
0r	.	1A	.	.	.
.	.	.	.	2d\	-ne-
*	*	*Xlig	*	*	*
*	*	*custos:F	*	*	*
.	.	1G	-ci-	2.e\	-di-
!	!	!LO:LB:g=original	!	!	!
.	.	.	.	4e\	-ci-
=15-	=15-	=15-	=15-	=15-	=15-
0r	.	1F	-mus	2f\	-mus
.	.	.	.	2d\	.
.	.	1E	te.	1e	te.
=16-	=16-	=16-	=16-	=16-	=16-
0r	.	1G	A-	2r	.
.	.	.	.	2.g\	A-
.	.	1G	-do-	.	.
.	.	.	.	4f\	.
.	.	.	.	2e\	.
=17-	=17-	=17-	=17-	=17-	=17-
1FF	ra-	1A	-ra-	1f	-do-
1GG	-mus	1G	-mus	2.d\	-ra-
.	.	.	.	4d\	-mus
=18-	=18-	=18-	=18-	=18-	=18-
*	*	*	*	*custos:c	*
1AA	te.	1E	te.	1c#X	te.
!	!	!	!	!LO:LB:g=original	!
2AA/	Glo-	1E	Glo-	2r	.
2.C/	-ri-	.	.	2cn\	Glo-
=19-	=19-	=19-	=19-	=19-	=19-
.	.	1G	-ri-	2.e\	-ri-
4D\	.	.	.	.	.
2.E\	.	.	.	.	.
.	.	.	.	4f\	-fi-
.	.	1G	-fi-	4g\	-ca-
4F\	.	.	.	8f\L	.
.	.	.	.	8e\J	.
2G\	.	.	.	2d\	.
=20-	=20-	=20-	=20-	=20-	=20-
*	*	*lig	*	*	*
1E	-fi-	1G	-ca-	2e\	.
.	.	.	.	1g	.
2.D\	-ca-	1A	.	.	.
.	.	.	.	2f#X\	-mus
4D\	-mus	.	.	.	.
*	*	*Xlig	*	*	*
=21-	=21-	=21-	=21-	=21-	=21-
1GG	te.	1G	-mus	1g	te.
*custos:C	*	*custos:E	*	*	*
2r	.	1E	te.	1.g	Gra-
!LO:LB:g=original	!	!LO:LB:g=original	!	!	!
1C/	Gra-	.	.	.	.
=22-	=22-	=22-	=22-	=22-	=22-
.	.	1E	Gra-	.	.
2C/	-ti-	.	.	2g\	-ti-
1C	-as	1G	-ti-	1e	-as
=23-	=23-	=23-	=23-	=23-	=23-
1.F	a-	1A	-as	1.f	a-
.	.	1A	a-	.	.
2F\	-gi-	.	.	2f\	-gi-
=24-	=24-	=24-	=24-	=24-	=24-
1C	-mus	1G	-gi-	0.e	-mus
4AA/	ti-	1A	-mus	.	.
4BB/	.	.	.	.	.
4C/	.	.	.	.	.
4AA/	.	.	.	.	.
=25-	=25-	=25-	=25-	=25-	=25-
1E	.	1B	ti-	.	.
*	*	*lig	*	*	*
*	*	*	*	*custos:a	*
2AA/	.	1c	.	2r	.
!	!	!	!	!LO:LB:g=original	!
2.FF/	.	.	.	2.a\	ti-
=26-	=26-	=26-	=26-	=26-	=26-
.	.	1A	.	.	.
*	*	*Xlig	*	*	*
4GG/	.	.	.	4g\	.
4AA/	.	.	.	1f	.
4BB/	.	.	.	.	.
*	*	*	*	*	*
1C	.	1G	.	.	.
.	.	.	.	2e\	.
=27-	=27-	=27-	=27-	=27-	=27-
*custos:D	*	*	*	*	*
1F	-bi	1A	-bi	0f	-bi
!LO:LB:g=original	!	!	!	!	!
2.D\	pro-	1A	pro-	.	.
4D\	-pter	.	.	.	.
=28-	=28-	=28-	=28-	=28-	=28-
2D\	ma-	1A	-pter	1r	.
2C#X/	-gna(m)	.	.	.	.
2D\	gl(o-	1A	ma-	2.f\	pro-
4D\	-ri)-	.	.	.	.
4D\	-am	.	.	4f\	-pter
=29-	=29-	=29-	=29-	=29-	=29-
2F\	.	1A	-gna(m)	2f\	ma-
2A\	tu-	.	.	2e\	-gna(m)
*	*	*custos:G	*	*	*
2.D\	.	1A	gl(o-	2.f\	gl(o-
!	!	!LO:LB:g=original	!	!	!
4C/	.	.	.	4f\	-ri)-
=30-	=30-	=30-	=30-	=30-	=30-
2BB/	.	1G	-ri)-	2d\	-am
2C/	.	.	.	2.c\	tu-
1FF	-am.	1A	-am	.	.
.	.	.	.	4B/	.
.	.	.	.	4c\	.
*	*	*	*	*custos:e	*
.	.	.	.	4d\	.
!	!	!	!	!LO:LB:g=original	!
=31-	=31-	=31-	=31-	=31-	=31-
2r	.	1G	tu-	0e	.
2.C/	Do-	.	.	.	.
.	.	1E	-am.	.	.
4C/	-mi-	.	.	.	.
*custos:D	*	*	*	*	*
2C/	-ne	.	.	.	.
!LO:LB:g=original	!	!	!	!	!
=32-	=32-	=32-	=32-	=32-	=32-
2D\	De-	1F	Do-	1d	-am.
2D\	-us,	.	.	.	.
2E\	Rex	1G	-mi-	1r	.
2C/	.	.	.	.	.
=33-	=33-	=33-	=33-	=33-	=33-
*	*	*lig	*	*	*
1E	cae-	1G	-ne	2r	.
.	.	.	.	2.c\	Do-
2.F\	-le-	1A	.	.	.
.	.	.	.	4c\	-mi-
.	.	.	.	2c\	-ne
4E\	.	.	.	.	.
*	*	*Xlig	*	*	*
=34-	=34-	=34-	=34-	=34-	=34-
2D\	.	1A	De-	2d\	De-
2C/	.	.	.	2e\	-us,
1D	.	1A	-us,	1f	Rex
=35-	=35-	=35-	=35-	=35-	=35-
1E	.	1G	Rex	2e\	cae-
.	.	.	.	1g	-le-
1D	-ſtis,	1A	cae-	.	.
.	.	.	.	2f#X\	.
=36-	=36-	=36-	=36-	=36-	=36-
2r	.	1G	-le-	1g\	-ſtis,
1G	De-	.	.	.	.
*	*	*custos:E	*	*	*
.	.	1E	-ſtis,	2r	.
!	!	!LO:LB:g=original	!	!	!
2G\	-us	.	.	1g\	De-
=37-	=37-	=37-	=37-	=37-	=37-
2E\	Pa-	1E	De-	.	.
2C/	-ter	.	.	2g\	-us
*custos:C	*	*	*	*	*
2r	.	1G	-us	2e\	Pa-
*	*	*	*	*custos:e	*
!LO:LB:g=original	!	!	!	!	!
1C/	De-	.	.	2c\	-ter
!	!	!	!	!LO:LB:g=original	!
=38-	=38-	=38-	=38-	=38-	=38-
*	*	*lig	*	*	*
.	.	1G	Pa-	4e\	om-
.	.	.	.	4f\	.
2C/	-us	.	.	4g\	.
.	.	.	.	4e\	.
2AA/	Pa-	1A	.	2.f\	-ni-
2.FF/	.	.	.	.	.
.	.	.	.	4f\	-po-
*	*	*Xlig	*	*	*
=39-	=39-	=39-	=39-	=39-	=39-
.	.	1A	-ter	2c\	-tens.
4GG/	.	.	.	.	.
4AA/	.	.	.	2.c\	om-
4BB/	.	.	.	.	.
2C/	.	1G	om-	.	.
.	.	.	.	4d\	.
2C/	-ter	.	.	2e\	.
=40-	=40-	=40-	=40-	=40-	=40-
1FF	om-	1A	-ni-	4d\	.
.	.	.	.	4c\	.
.	.	.	.	1c	-ni-
2.GG/	-ni-	1G	-po-	.	.
.	.	.	.	2B/	-po-
4GG/	-po-	.	.	.	.
=41-	=41-	=41-	=41-	=41-	=41-
1C	-tens.	1E	-tens.	1c	-tens.
2r	.	1F	Do-	2.A/	Do-
2r	.	.	.	.	.
.	.	.	.	4A/	-mi-
=42-	=42-	=42-	=42-	=42-	=42-
2r	.	1G	-mi-	2B/	-ne
2.C/	Do-	.	.	1c	.
*	*	*lig	*	*	*
.	.	1G	-ne	.	.
4C/	-mi-	.	.	.	.
*custos:AA	*	*	*	*	*
2BB/	-ne	.	.	2d\	Fi-
!LO:PB:g=original	!	!	!	!	!
=43-	=43-	=43-	=43-	=43-	=43-
*	*	*	*	*custos:e	*
1AA	Fi-	1A	.	1e	-li
!	!	!	!	!LO:LB:g=original	!
*	*	*Xlig	*	*	*
2FF/	-li	1A	Fi-	2r	.
2.C/	Do-	.	.	2.e\	Do-
=44-	=44-	=44-	=44-	=44-	=44-
*	*	*custos:G	*	*	*
.	.	1A	-li	.	.
!	!	!LO:LB:g=original	!	!	!
4C/	-mi-	.	.	4e\	-mi-
2D\	-ne	.	.	2f#X\	-ne
2E\	Fi-	1G	u-	2g\	Fi-
2C/	-li	.	.	2e\	-li
=45-	=45-	=45-	=45-	=45-	=45-
2E\	u-	1G	-ni-	2g\	u-
2E\	-ni-	.	.	2g\	-ni-
4F\	-ge-	1A	-ge-	1f	-ge-
4G\	.	.	.	.	.
4A\	.	.	.	.	.
4F\	.	.	.	.	.
=46-	=46-	=46-	=46-	=46-	=46-
2.G\	.	1G	-ni-	2.d\	.
4G\	-ni-	.	.	4d\	-ni-
*custos:C	*	*	*	*	*
1C	-te,	1E	-te,	1e	-te,
!LO:LB:g=original	!	!	!	!	!
=47-	=47-	=47-	=47-	=47-	=47-
0C	Je-	1E	Je-	0.c	Je-
.	.	1G	-ſu	.	.
=48-	=48-	=48-	=48-	=48-	=48-
*lig	*	*lig	*	*	*
1AA	-ſu	1A	Chri-	.	.
1GG	.	1B	.	2d\	.
.	.	.	.	2e\	.
*Xlig	*	*Xlig	*	*	*
=49-	=49-	=49-	=49-	=49-	=49-
*	*	*lig	*	*	*
0FF	.	1c	.	2f\	-ſu
.	.	.	.	2.a\	Chri-
.	.	1A	.	.	.
*	*	*	*	*custos:f	*
.	.	.	.	4g\	.
!	!	!	!	!LO:LB:g=original	!
.	.	.	.	1f\	.
*	*	*Xlig	*	*	*
=50-	=50-	=50-	=50-	=50-	=50-
1C	Chri-	1G	.	.	.
.	.	.	.	2e\	.
1FF	-ſte.	1A	-ſte.	1f	-ſte.
=51-	=51-	=51-	=51-	=51-	=51-
2C/	Do-	1G	Do-	2e\	Do-
4C/	-mi-	.	.	4e\	-mi-
4C/	-ne	.	.	4e\	-ne
2E\	De-	1G	-mi-	2g\	De-
2E\	-us,	.	.	2g\	-us,
=52-	=52-	=52-	=52-	=52-	=52-
*	*	*custos:G	*	*	*
1F	A-	1A	-ne	4f\	A-
!	!	!LO:LB:g=original	!	!	!
.	.	.	.	4g\	.
.	.	.	.	4a\	.
.	.	.	.	4f\	.
2C/	-gnus	1G	De-	2g\	.
2.C/	De-	.	.	2e\	-gnus
=53-	=53-	=53-	=53-	=53-	=53-
.	.	1E	-us,	2.g\	De-
4BB/	.	.	.	.	.
4C/	.	.	.	.	.
*custos:E	*	*	*	*	*
4D\	.	.	.	4f\	.
!LO:LB:g=original	!	!	!	!	!
4E\	.	1G	A-	2e\	.
4F\	.	.	.	.	.
1G\	.	.	.	2B/	.
=54-	=54-	=54-	=54-	=54-	=54-
.	.	1A	-gnus	1d	.
2F#X\	.	.	.	.	.
*	*	*	*	*custos:g	*
1G	-i,	1G	De-	2B/	-i,
!	!	!	!	!LO:PB:g=original	!
.	.	.	.	2.g\	Fi-
=55-	=55-	=55-	=55-	=55-	=55-
2.C/	Fi-	1E	-i,	.	.
.	.	.	.	4f\	-li-
.	.	.	.	2e\	-us
4BB/	.	.	.	.	.
2AA/	.	1F	Fi-	2.c\	Pa-
2FF/	-li-	.	.	.	.
.	.	.	.	4d\	.
=56-	=56-	=56-	=56-	=56-	=56-
1C	-us	1G	-li-	4e\	.
.	.	.	.	4f\	.
.	.	.	.	2g\	.
2.AA/	Pa-	1A	-us	2.c\	.
4BB/	.	.	.	4d\	.
=57-	=57-	=57-	=57-	=57-	=57-
*	*	*lig	*	*	*
4C/	.	1G	Pa-	1e	.
4D\	.	.	.	.	.
4E\	.	.	.	.	.
4C/	.	.	.	.	.
*lig	*	*	*	*	*
1D	.	1F	.	1d	.
*	*	*Xlig	*	*	*
=58-	=58-	=58-	=58-	=58-	=58-
*	*	*custos:E	*	*	*
1E	.	0E	-tris.	1B	.
!	!	!LO:LB:g=original	!	!	!
*Xlig	*	*	*	*	*
*custos:E	*	*	*	*custos:g	*
1AA;	-tris,	.	.	1c;	-tris,
!LO:LB:g=original	!	!	!	!LO:LB:g=original	!
=59||-	=59||-	=59||-	=59||-	=59||-	=59||-
2r	.	1E	Qui	0g	Qui
2E\	Qui	.	.	.	.
*lig	*	*lig	*	*	*
1E	tol-	1G	tol-	.	.
=60-	=60-	=60-	=60-	=60-	=60-
1D	.	1A	.	1f	tol-
*Xlig	*	*Xlig	*	*	*
1AA	-lis	1A	-lis	1e	.
=61-	=61-	=61-	=61-	=61-	=61-
2D\	pec-	1A	pec-	1f	-lis
1F	-ca-	.	.	.	.
.	.	1G	.	2r	.
2E\	-ta	.	.	2e\	pec-
=62-	=62-	=62-	=62-	=62-	=62-
2.D\	mun-	1A	-ca-	2.f\	-ca-
4C/	.	.	.	4e\	-ta
1BB	.	1B	-ta	1d	mu(n)-
=63-	=63-	=63-	=63-	=63-	=63-
*	*	*lig	*	*	*
2.AA/	.	1c	mu(n)-	2c\	-di
.	.	.	.	2e\	pec-
4BB/	.	.	.	.	.
2C/	.	1A	.	2e\	-ca-
*custos:E	*	*	*	*custos:g	*
2D\	.	.	.	2f\	-ta
!LO:LB:g=original	!	!	!	!LO:LB:g=original	!
*	*	*Xlig	*	*	*
=64-	=64-	=64-	=64-	=64-	=64-
1E	.	1G	.	1.g	mun-
0D	-di	1A	-di	.	.
.	.	.	.	4f#X\	.
.	.	.	.	4e\	.
=65-	=65-	=65-	=65-	=65-	=65-
.	.	1A	mi-	1f#X	-di
2.G\	mi-	1G	-ſe-	1g	.
4G\	-ſe-	.	.	.	.
=66-	=66-	=66-	=66-	=66-	=66-
2F\	-re-	1A	-re-	2.d\	mi-
2D\	-(re)	.	.	.	.
.	.	.	.	4d\	-ſe-
*	*	*custos:G	*	*	*
1F	no-	1A	-re	2c\	-re-
!	!	!LO:LB:g=original	!	!	!
.	.	.	.	2A/	-re
=67-	=67-	=67-	=67-	=67-	=67-
1.C	.	1G	no-	2c\	no-
.	.	.	.	1e	.
.	.	1E	-bis.	.	.
2BB/	.	.	.	2d\	.
=68-	=68-	=68-	=68-	=68-	=68-
1AA	-bis.	1E	Qui	4c\	.
.	.	.	.	4d\	.
.	.	.	.	4e\	.
.	.	.	.	4c\	.
*	*	*lig	*	*	*
1r	.	1G	tol-	1d	.
=69-	=69-	=69-	=69-	=69-	=69-
2r	.	1A	.	0c	-bis.
2AA/	Qui	.	.	.	.
*	*	*Xlig	*	*	*
2C/	tol-	1A	-lis	.	.
4C/	-lis	.	.	.	.
4C/	pec-	.	.	.	.
=70-	=70-	=70-	=70-	=70-	=70-
2D\	-(ca)-	1A	pec-	2r	.
*custos:E	*	*	*	*	*
1F	.	.	.	2A/	Qui
!LO:LB:g=original	!	!	!	!	!
.	.	1G	-ca-	2c\	tol-
2E\	.	.	.	4c\	-lis
*	*	*	*	*custos:d	*
.	.	.	.	4c\	pec-
!	!	!	!	!LO:LB:g=original	!
=71-	=71-	=71-	=71-	=71-	=71-
1D	-ta	1A	-ta	2d\	-ca-
.	.	.	.	1f	-ta
1G	.	1B	mun-	.	.
.	.	.	.	2e\	mun-
=72-	=72-	=72-	=72-	=72-	=72-
*	*	*lig	*	*	*
0F	mun-	1c	.	2f\	.
.	.	.	.	2.a\	-pec-
.	.	1A	.	.	.
.	.	.	.	4g\	.
.	.	.	.	2f\	-ca-
*	*	*Xlig	*	*	*
=73-	=73-	=73-	=73-	=73-	=73-
1E	.	1G	.	1g	-ta
1D	-di,	1A	-di,	1f#X	mun-
=74-	=74-	=74-	=74-	=74-	=74-
*lig	*	*lig	*	*lig	*
1D	su-	1A	ſu-	1f#X	-di,
2GG/	.	1B-X	.	2g\	su-
*Xlig	*	*Xlig	*	*Xlig	*
2GG/	-ſci-	.	.	2g\	-ſci-
=75-	=75-	=75-	=75-	=75-	=75-
1D	-pe	1A	-ſci-	1f#X	-pe
*	*	*custos:A	*	*	*
2.D\	de-	1A	-pe	2.d\	de-
!	!	!LO:PB:g=original	!	!	!
4D\	-pre-	.	.	4d\	-pre-
=76-	=76-	=76-	=76-	=76-	=76-
2D\	-ca-	1A	de-	2d\	-ca-
*custos:D	*	*	*	*	*
2C/	-ti-	.	.	2e\	-ti-
!LO:LB:g=original	!	!	!	!	!
2.D\	-o-	1A	-pre-	4f\	-o-
.	.	.	.	4e\	.
.	.	.	.	4f\	.
4E\	.	.	.	4g\	.
=77-	=77-	=77-	=77-	=77-	=77-
*lig	*	*	*	*	*
1F	.	1A	-ca-	2a\	.
*	*	*	*	*custos:e	*
.	.	.	.	1f	.
!	!	!	!	!LO:LB:g=original	!
1C	.	1G	-ti-	.	.
.	.	.	.	2e\	.
*Xlig	*	*	*	*	*
=78-	=78-	=78-	=78-	=78-	=78-
2FF/	-nem	1A	-o-	1f	-nem
2.FF/	no-	.	.	.	.
.	.	1A	-nem	1f	no-
4GG/	.	.	.	.	.
4AA/	.	.	.	.	.
4BB/	.	.	.	.	.
=79-	=79-	=79-	=79-	=79-	=79-
*	*	*lig	*	*lig	*
4C/	.	1G	no-	1e	.
4D\	.	.	.	.	.
4E\	.	.	.	.	.
4C/	.	.	.	.	.
1D	.	1F	.	1d	.
*	*	*Xlig	*	*Xlig	*
=80-	=80-	=80-	=80-	=80-	=80-
1AA	-ſtram.	1E	-ſtram.	1c#X	-ſtram.
2r	.	1E	Qui	1r	.
2AA/	Qui	.	.	.	.
=81-	=81-	=81-	=81-	=81-	=81-
*	*	*lig	*	*	*
*custos:E	*	*	*	*	*
2E\	ſe-	1G	ſe-	1r	.
!LO:LB:g=original	!	!	!	!	!
4E\	-des	.	.	.	.
4E\	ad	.	.	.	.
2.F\	de-	1A	.	2r	.
.	.	.	.	2A/	Qui
4F\	-xte-	.	.	.	.
*	*	*Xlig	*	*	*
=82-	=82-	=82-	=82-	=82-	=82-
1C#X	-ra(m)	1A	-des	2e\	ſe-
.	.	.	.	4e\	-des
.	.	.	.	4e\	ad
4D\	Pa-	1A	ad	2.f\	de-
4E\	.	.	.	.	.
4F\	.	.	.	.	.
4G\	.	.	.	4f\	-xte-
=83-	=83-	=83-	=83-	=83-	=83-
4A\	.	1A	de-	1e	-ra(m)
4B\	.	.	.	.	.
1c	.	.	.	.	.
.	.	1G	-xte-	2r	.
4B\	.	.	.	2d\	Qui
4A\	.	.	.	.	.
=84-	=84-	=84-	=84-	=84-	=84-
1B	.	1G	-ra(m)	2g\	ſe-
.	.	.	.	4g\	-des
.	.	.	.	4g\	ad
*	*	*lig	*	*	*
2c\	.	1A	Pa-	2e\	de-
*	*	*	*	*custos:g	*
2A\	.	.	.	2f#X\	-xte-
!	!	!	!	!LO:LB:g=original	!
=85-	=85-	=85-	=85-	=85-	=85-
*	*	*custos:c	*	*	*
2G\	-tris,	1B	.	2g\	-ra(m)
*custos:C	*	*	*	*	*
!	!	!LO:LB:g=original	!	!	!
2GG/	Qui	.	.	2.g\	Pa-
!LO:LB:g=original	!	!	!	!	!
*	*	*Xlig	*	*	*
*	*	*lig	*	*	*
2C/	ſe-	1c	.	.	.
.	.	.	.	4f\	.
4C/	-des	.	.	2.e\	.
4C/	ad	.	.	.	.
=86-	=86-	=86-	=86-	=86-	=86-
2D\	de-	1A	.	.	.
.	.	.	.	4d\	.
4D\	-xte-	.	.	1d	.
4D\	-ra(m)	.	.	.	.
*	*	*Xlig	*	*	*
1E	P(a-	1G	.	.	.
.	.	.	.	2c#X\	.
=87-	=87-	=87-	=87-	=87-	=87-
2D\	-t)ris	1A	-tris,	1d	-tris,
1D	mi-	.	.	.	.
.	.	1A	mi-	1r	.
2C/	-ſe-	.	.	.	.
=88-	=88-	=88-	=88-	=88-	=88-
1BB-X	-re-	1G	-ſe-	2r	.
.	.	.	.	1d	mi-
1AA	-re	1A	-re-	.	.
.	.	.	.	2c\	-ſe-
=89-	=89-	=89-	=89-	=89-	=89-
*lig	*	*	*	*	*
1FF	no-	1A	-re	4A/	-re-
.	.	.	.	4B/	.
.	.	.	.	1c	-re
1GG	.	1G	no-	.	.
.	.	.	.	2B/	no-
*Xlig	*	*	*	*	*
=90-	=90-	=90-	=90-	=90-	=90-
0C	-bis.	1E	-bis.	1c	-bis.
.	.	1E	Quo-	2.g\	Quo-
.	.	.	.	4g\	-ni-
=91-	=91-	=91-	=91-	=91-	=91-
1r	.	1F	-ni-	2f\	-am
*	*	*	*	*custos:d	*
.	.	.	.	2e\	tu
!	!	!	!	!LO:LB:g=original	!
*	*	*lig	*	*	*
2.G\	Quo-	1G	-am	2.d\	ſo-
*custos:F	*	*	*	*	*
4G\	-ni-	.	.	4e\	-lus
!LO:LB:g=original	!	!	!	!	!
=92-	=92-	=92-	=92-	=92-	=92-
2F\	-am	1A	.	2f\	San-
2E\	tu	.	.	2c\	.
*	*	*Xlig	*	*	*
2D\	ſo-	1A	tu	1f	-ctus.
2D\	-lus	.	.	.	.
=93-	=93-	=93-	=93-	=93-	=93-
4E\	ſan-	1G	ſo-	2.g\	Quo-
4F\	.	.	.	.	.
4G\	.	.	.	.	.
4E\	.	.	.	4g\	-ni-
*	*	*custos:G	*	*	*
4F\	.	1A	-lus	2f\	-am
!	!	!LO:LB:g=original	!	!	!
4G\	.	.	.	.	.
4A\	.	.	.	2f\	tu
4F\	.	.	.	.	.
=94-	=94-	=94-	=94-	=94-	=94-
2G\	.	1G	San-	2e\	ſo-
2GG/	.	.	.	2d\	-lus
1C	-ctus	1E	-ctus.	2c\	Sa(n)-
.	.	.	.	2c\	-ctus
=95-	=95-	=95-	=95-	=95-	=95-
1C	Tu	1E	Tu	2r	.
.	.	.	.	2e\	Tu
*	*	*lig	*	*	*
2BB/	ſo-	1G	ſo-	2d\	ſo-
*custos:FF	*	*	*	*	*
2C/	-lus	.	.	2e\	-lus
!LO:PB:g=original	!	!	!	!	!
=96-	=96-	=96-	=96-	=96-	=96-
1.FF	Do-	1A	.	1.f	Do-
*	*	*Xlig	*	*	*
.	.	1A	-lus	.	.
2FF/	-mi-	.	.	2f\	-mi-
=97-	=97-	=97-	=97-	=97-	=97-
*	*	*	*	*custos:c	*
1.C	-nus.	1G	Do-	1e	-nus.
!	!	!	!	!LO:LB:g=original	!
.	.	1F	-mi-	1c	Tu
1AA/	Tu	.	.	.	.
=98-	=98-	=98-	=98-	=98-	=98-
.	.	1E	-nus.	1e	ſo-
2C/	ſo-	.	.	.	.
2C/	-lus	1E	Tu	2e\	-lus
1E\	Al-	.	.	2.g\	Al-
=99-	=99-	=99-	=99-	=99-	=99-
*	*	*lig	*	*	*
.	.	1G	ſo-	.	.
.	.	.	.	8f\L	.
.	.	.	.	8e\J	.
1G	-ti-	.	.	2d\	.
.	.	1A	.	1.d	-ti-
4F\	.	.	.	.	.
4E\	.	.	.	.	.
*	*	*Xlig	*	*	*
=100-	=100-	=100-	=100-	=100-	=100-
2F#X\	.	1A	-lus	.	.
2F#X\	-ſsi-	.	.	2d\	-ſsi-
1G	-mus,	1G	Al-	1.d	-mus,
=101-	=101-	=101-	=101-	=101-	=101-
*	*	*lig	*	*	*
2r	.	1A	-ti-	.	.
2C/	Tu	.	.	2e\	Tu
2E\	ſo-	1G	.	2g\	ſo-
*custos:E	*	*	*	*	*
4E\	-lus	.	.	4g\	-lus
!LO:LB:g=original	!	!	!	!	!
4E\	Al-	.	.	4g\	Al-
*	*	*Xlig	*	*	*
=102-	=102-	=102-	=102-	=102-	=102-
2.F\	-ti-	1F	-ſsi-	2.a\	-ti-
.	.	.	.	.	.
4F\	-ſsi-	.	.	4a\	-ſsi-
*	*	*custos:E	*	*	*
0C	-mus,	1E	-mus,	2g\	-mus,
!	!	!LO:LB:g=original	!	!	!
.	.	.	.	2.g\	Je-
=103-	=103-	=103-	=103-	=103-	=103-
.	.	1E	Je-	.	.
*	*	*	*	*custos:e	*
.	.	.	.	4f\	.
!	!	!	!	!LO:LB:g=original	!
.	.	.	.	4e\	.
.	.	.	.	4d\	.
2.C/	Je-	1G	-ſu	0c	.
4BB/	.	.	.	.	.
=104-	=104-	=104-	=104-	=104-	=104-
*	*	*lig	*	*	*
1AA	.	1A	Chri-	.	.
1GG	-ſu	1B	.	2d\	.
.	.	.	.	2e\	-ſu
*	*	*Xlig	*	*	*
=105-	=105-	=105-	=105-	=105-	=105-
*	*	*lig	*	*	*
0FF	Chri-	1c	.	1f	Chri-
.	.	1A	.	0c	.
*	*	*Xlig	*	*	*
=106-	=106-	=106-	=106-	=106-	=106-
1C	.	1G	.	.	.
1FF	-ſte.	1A	-ſte.	2c\	-ſte.
.	.	.	.	2e\	Cu(m)
=107-	=107-	=107-	=107-	=107-	=107-
2r	.	1E	Cu(m)	1.g	San-
2C/	Cu(m)	.	.	.	.
*	*	*lig	*	*	*
2E\	San-	1G	San-	.	.
*custos:F	*	*	*	*	*
2E\	-cto	.	.	2e\	-cto
!LO:LB:g=original	!	!	!	!	!
=108-	=108-	=108-	=108-	=108-	=108-
2.F\	Spi-	1A	.	2.a\	Spi-
4E\	.	.	.	4g\	.
*	*	*Xlig	*	*	*
2D\	.	1A	-cto	4f\	.
.	.	.	.	4e\	.
2D\	-ri-	.	.	4f\	.
.	.	.	.	4d\	.
=109-	=109-	=109-	=109-	=109-	=109-
*	*	*lig	*	*	*
2AA/	-tu	1A	Spi-	2e\	-ri-
2D\	in	.	.	2f\	-tu
*	*	*	*	*custos:e	*
2.G\	glo-	1B-X	.	1g	.
!	!	!	!	!LO:LB:g=original	!
4G\	-ri-	.	.	.	.
*	*	*Xlig	*	*	*
=110-	=110-	=110-	=110-	=110-	=110-
2F\	-a	1A	-ri-	0r	.
4D\	De-	.	.	.	.
4D\	-i	.	.	.	.
2.F\	Pa-	1A	-tu	.	.
4G\	.	.	.	.	.
=111-	=111-	=111-	=111-	=111-	=111-
4A\	.	1A	in	2r	.
4B\	.	.	.	.	.
2c\	.	.	.	2e\	in
*	*	*lig	*	*	*
1F	-tris.	1A	glo-	2.a\	glo-
.	.	.	.	4a\	-ri-
=112-	=112-	=112-	=112-	=112-	=112-
*custos:GG	*	*	*	*	*
2r	.	1B	.	2g\	-a
!LO:LB:g=original	!	!	!	!	!
2GG/	in	.	.	4d\	De-
.	.	.	.	4d\	-i
*	*	*Xlig	*	*	*
2.D\	glo-	1A	-ri-	1f	Pa-
4D\	-ri-	.	.	.	.
=113-	=113-	=113-	=113-	=113-	=113-
*	*	*custos:A	*	*	*
2C/	-a	1A	-a	1e	-tris.
!	!	!LO:LB:g=original	!	!	!
4AA/	De-	.	.	.	.
4AA/	-i	.	.	.	.
2C/	Pa-	1A	De-	2r	.
2D\	.	.	.	2d\	in
=114-	=114-	=114-	=114-	=114-	=114-
1E	.	1G	-i	2.g\	glo-
.	.	.	.	4g\	-ri-
2D\	-tris.	1A	Pa-	2f\	-a
4r	.	.	.	4d\	De-
4D\	in	.	.	4d\	-i
=115-	=115-	=115-	=115-	=115-	=115-
*	*	*lig	*	*	*
2.G\	glo-	1B	.	2e\	Pa-
.	.	.	.	2d\	.
4G\	-ri-	.	.	.	.
2E\	-a	1G	.	4e\	.
.	.	.	.	4f\	.
4C/	De-	.	.	4g\	.
*	*	*	*	*custos:f	*
4C/	-i	.	.	4e\	.
!	!	!	!	!LO:PB:g=original	!
*	*	*Xlig	*	*	*
=116-	=116-	=116-	=116-	=116-	=116-
*lig	*	*lig	*	*	*
1D	Pa-	1F	.	4f\	.
.	.	.	.	4e\	.
.	.	.	.	1d	.
*custos:D	*	*	*	*	*
1AA	.	1E	.	.	.
!LO:LB:g=original	!	!	!	!	!
.	.	.	.	2c#X\	.
*Xlig	*	*Xlig	*	*	*
=117-	=117-	=117-	=117-	=117-	=117-
1D	-tris.	1D	.	1d	-tris.
2.AA/	A-	1E	-tris.	2.c\	A-
4BB/	.	.	.	4d\	.
=118-	=118-	=118-	=118-	=118-	=118-
*	*	*lig	*	*	*
1C	.	1E	A-	4e\	.
.	.	.	.	4f\	.
.	.	.	.	4g\	.
.	.	.	.	4e\	.
1D	.	1F	.	1a	.
*	*	*Xlig	*	*	*
=119-	=119-	=119-	=119-	=119-	=119-
*	*	*lig	*	*	*
2.E\	.	1G	.	2g\	-men.
.	.	.	.	2.e\	A-
4D\	.	.	.	.	.
4C/	.	1E	.	.	.
4BB/	.	.	.	4d\	.
2AA/	.	.	.	2c\	.
*	*	*Xlig	*	*	*
=120-	=120-	=120-	=120-	=120-	=120-
1BB	.	1D	.	2B/	.
.	.	.	.	2d\	.
*	*	*	*	*lig	*
2.C/	.	[1E	-men.	1c	.
4D\	.	.	.	.	.
=121-	=121-	=121-	=121-	=121-	=121-
1E	.	0E_	.	1B	.
*	*	*	*	*Xlig	*
*	*	*	*	*custos:c	*
1AA	-men.	.	.	1c#X	-men.
!	!	!	!	!LO:LB:g=original	!
=122-	=122-	=122-	=122-	=122-	=122-
2r	.	0E_	.	2r	.
1AA	A-	.	.	1c	A-
2GG#X/	-men.	.	.	2e\	.
=123-	=123-	=123-	=123-	=123-	=123-
1AA	A-	0E]	.	1c	.
1EE;<	-men.	.	.	1B;	-men.
=-	=-	=-	=-	=-	=-
*-	*-	*-	*-	*-	*-
!!!RDF**kern: l = terminal long
!!!RDF**kern: < = below
!!!system-decoration: s1,s2,s3
!!!ENC: Arkadiusz Malec
!!!END: 2022-01-24
!!!ENC: Julita Ruszuk
!!!END: 2022-01-29
!!!YEC: Copyright 2022 Narodowy Instytut Fryderyka Chopina (https://polishscores.org)
!!!YEM: License CC-BY-4.0 (https://creativecommons.org/licenses/by/4.0)
